X:1
T:The Arkansas Traveler
M:4/4
L:1/8
K:G
 D2| GB AG E2 E2| D2 D2 G3 G| A2 A2 B2 GG| AB AG E3| D| GB AG E2 EE|\
 D2 D2 G3 d| gf gd eg fe| dc BA G2| Bc| dc Bd cB Ac| BA GB A2 D2| G2 G2 A2 A2|\
 BA GB A2| Bc| dc Bd cB Ac| BA GB A2 d2| gf gd eg fe| dc BA G2||
